X:23
T:Furlong, The
T:John Malchairs Third Collection of Tunes
%%VWML:Malchair-3619-p23
F:https://www.vwml.org/record/Malchair/3619/p23
F:www.vwml.org/topics/historic-dance-and-tune-books/Malchair
Z:Peter Dunk Feb 2020
M:6/4
L:1/4
K:C
g|c2 c c3/d/ e|d2G G2g|c2 c c3/d/e|d2G G2G|
A3/B/c c3/d/B|c2c c2G|A3/B/c c3/d/ B|c2c c2g|
e2a g2f|e2c c2g|e2a g2f|e2c c3/d/B|
A2G G3/c/B|A2G G3/c/B|A2G A2B|c2G G2g|
g3-g2 a|g3-g2 g|g3/f/g a3/g/f|g2g g2G|
G3/A/B c3/B/A|d2d d2G|G3/A/B c3/B/A|d2d d2g|
g3/f/e d3/c/B|c2c c2g|g3/f/e d3/c/B|c2c c2G|
c3/B/c d3/c/d|e2c c2G|c3/B/c d3/c/d|e2c c3/g/f|
e2d d3/g/f|e2c c3/g/f|e2d e2f|g2d d2d|
d3-d2 e|d3-d2 e|d3/c/d e3/d/c|d2d d2g|
c2c c3/d/e|d2G G2g|c2c c3/d/e|d2G G2G|
A3/B/c c3/d/B|c2c c2G|A3/B/c c3/d/B|c2c c2|]

